X: 1
T: Gaspe, The
M: 4/4
L: 1/8
R: reel
K: Gmaj
|:B2 AB AG FE|D2 D2 E2 D2|c2 Bc BA GF|E2 F2 E2 D2|
B2 AB AG FE|D2 D2 E2 D2|c2 Bc BA GF |E2 F2 G4:|
|:A3 B c2 A2|B3 c d2 B2|A3 B cB AG|E2 F2 E2 D2|
A3 B c2 A2|B3 c  d2 B2|A3 B cB AG|E2 F2 G4 :|
